src/lib/packages/icons/src/assets/line/fire.svg

<svg width="24" height="24" viewBox="0 0 24 24" fill="none" xmlns="http://www.w3.org/2000/svg">
<path d="M12 21.75C7.727 21.75 4.25 18.273 4.25 14C4.25 11.679 4.914 10.025 6.47 8.46996C6.769 8.17096 7.10599 7.872 7.45599 7.562C8.82999 6.344 10.25 5.08497 10.25 3.00097C10.25 2.72397 10.402 2.47002 10.646 2.34002C10.891 2.21002 11.186 2.224 11.416 2.377C11.476 2.417 16.814 6.07498 14.577 12.378C15.034 12.031 15.485 11.566 15.801 10.956C16.099 10.38 16.25 9.72197 16.25 9.00097C16.25 8.69697 16.434 8.422 16.716 8.307C16.997 8.192 17.321 8.25797 17.535 8.47497C18.943 9.90497 19.75 11.92 19.75 14.001C19.75 18.273 16.273 21.75 12 21.75ZM11.562 4.47198C11.059 6.37198 9.63701 7.63201 8.45001 8.68401C8.12401 8.97301 7.809 9.25102 7.53 9.53002C6.265 10.795 5.75 12.09 5.75 14C5.75 17.446 8.554 20.25 12 20.25C15.446 20.25 18.25 17.446 18.25 14C18.25 12.892 17.971 11.809 17.459 10.871C17.37 11.138 17.261 11.397 17.133 11.645C15.903 14.024 13.293 14.7 13.182 14.728C12.89 14.801 12.583 14.693 12.402 14.453C12.22 14.213 12.199 13.889 12.348 13.628C14.975 9.03098 12.936 5.88798 11.562 4.47198Z" fill="currentColor"/>
</svg>

<svg xmlns="http://www.w3.org/2000/svg" width="24" height="24" fill="none"><path fill="currentColor" d="M12 21.75c-4.273 0-7.75-3.477-7.75-7.75 0-2.321.664-3.975 2.22-5.53.299-.299.636-.598.986-.908C8.83 6.344 10.25 5.085 10.25 3.001a.748.748 0 0 1 1.166-.624c.06.04 5.398 3.698 3.161 10.001a4.259 4.259 0 0 0 1.224-1.422c.298-.576.449-1.234.449-1.955a.75.75 0 0 1 1.285-.526c1.408 1.43 2.215 3.445 2.215 5.526 0 4.272-3.477 7.749-7.75 7.749Zm-.438-17.278c-.503 1.9-1.925 3.16-3.112 4.212-.326.289-.641.567-.92.846-1.265 1.265-1.78 2.56-1.78 4.47A6.257 6.257 0 0 0 12 20.25 6.257 6.257 0 0 0 18.25 14a6.554 6.554 0 0 0-.791-3.129 5.436 5.436 0 0 1-.326.774c-1.23 2.379-3.84 3.055-3.951 3.083a.749.749 0 0 1-.834-1.1c2.627-4.597.588-7.74-.786-9.156Z"/></svg>
